X: 411
T:Prekid Kolo
O: Serbia
F: http://www.youtube.com/watch?v=vp0ybwVzOUE
F: http://www.youtube.com/watch?v=6QUEF0o_7Sw
P:AABC
M:2/4
L:1/8
Q:1/4=180
K:D clef=treble
%%MIDI gchord fzfz
P:A
  D2 CD|B,2 GF |EFED    |B,4     |\
|:D2 z2|D,2^B,2|^B,D^B,2|B,4     ::\ 
P:B 
  D2 z2|D,2^B,2|^B,D^B,2|B,4     :: 
P:C
  G4   |^E4    |^E2=E2  |EDE^B,  |\
  D2D2 |^E2E2  |^E2=E2  |EDE^B,  |
  G^EG2|^E=E^E2|^E2=E2  |EDE^B,  |\
  D2D2 |^E2E2  |^E2=E2  |EDE^B,  :|



